icons/svg/microphone.svg

﻿<?xml version="1.0" encoding="utf-8"?>
<!DOCTYPE svg PUBLIC "-//W3C//DTD SVG 1.1//EN" "http://www.w3.org/Graphics/SVG/1.1/DTD/svg11.dtd">
<svg xmlns="http://www.w3.org/2000/svg" xmlns:xlink="http://www.w3.org/1999/xlink" version="1.1" baseProfile="full" width="24" height="24" viewBox="0 0 24.00 24.00" enable-background="new 0 0 24.00 24.00" xml:space="preserve">
	<path fill="#000000" fill-opacity="1" stroke-width="0.2" stroke-linejoin="round" d="M 11.9999,2.00028C 13.6568,2.00028 14.9999,3.34338 14.9999,5.00024L 14.9999,11.0001C 14.9999,12.657 13.6568,14.0001 11.9999,14.0001C 10.343,14.0001 8.99988,12.657 8.99988,11.0001L 8.99988,5.00024C 8.99988,3.34338 10.343,2.00028 11.9999,2.00028 Z M 19,11C 19,14.5265 16.3923,17.4439 13,17.9291L 13,21L 11,21L 11,17.9291C 7.6077,17.4439 5,14.5265 5,11L 7,11C 7,13.7614 9.23857,16 12,16C 14.7614,16 17,13.7614 17,11L 19,11 Z "/>
</svg>

<svg xmlns="http://www.w3.org/2000/svg" version="1.1" baseProfile="full" width="24" height="24" viewBox="0 0 24.00 24.00" xml:space="preserve"><path fill="#000" fill-opacity="1" stroke-width=".2" stroke-linejoin="round" d="M12 2c1.657 0 3 1.343 3 3v6c0 1.657-1.343 3-3 3s-3-1.343-3-3V5c0-1.657 1.343-3 3-3zm7 9c0 3.527-2.608 6.444-6 6.93V21h-2v-3.07c-3.392-.486-6-3.403-6-6.93h2c0 2.76 2.24 5 5 5s5-2.24 5-5h2z"/></svg>
